X:771
T:Under New Management
%%scale 0.72
C:Colin Hume, 1990
L:1/4
M:2/2
S:Colin Hume's website,  colinhume.com  - chords can also be printed below the stave.
Q:1/2=112
K:A
P:A
|: "A"aa "/"e/d/c/e/ | "A"aa "/"e/d/c/e/ | "D"f/e/d/f/ "A"e/d/c/e/ | "Bm"d/c/B/c/ "E7"d/e/f/g/ |\
"A"aa "/"e/d/c/e/ | "A"aa "/"e/d/c/e/ | "D"f/e/d/f/ "A"e/d/c/A/ | "E7"B/c/d/e/ "A"c/A/A :|
K:G
P:B
|: "D"ff "/"d/^c/B | "A"ee "/"^c/B/A | "G"BB/^c/ "/"dB | "D7"A=c "G"BG |\
"D"ff "/"d/^c/B | "C"ee "/"=c/B/A | "G"dd/=c/ "/"B/G/B/d/ | "C"e "D"f "G"g2 :|

